X: 1
T: Glengarry's March
R: march
Z: John Chambers <jc:trillian.mit.edu>
M: 2/4
L: 1/16
K: AMix
   ed \
|  "A"c2A2 A2Bc | "G"d2B2 "(E7)"B2ed \
|1 "A"c2A2 A2Bc | "G"dcBA G2 :|2 "A"c2Ac "G"B2GB | "A"A3 :|
|: ed \
|  "A"c2e2 e2g2 | "G"dBGB "(E7)"d2ed \
|1 "A"c2e2 e2fg | agfe a2 :|2 "A"c2Ac "G"B2GB | "A"A3 :|
